X: 5008
T: Breton Gavotte
R: hornpipe
M: 4/4
K: Aminor
|:EAAc BA^GA|B/c/dcB AcBG|E2Ac BA^GA|1 B/c/dcB A2 AG:|2 B/c/dcB A3 E||
ABcd e2ef|fefg e2ec|ABcd ezef|fefg e2ec||
|:AB/c/dc dec2|BABc d2e2|AB/c/dc dec2|1 BABc A2A E:|2 BABc A3 d||
|:eafe dfed|cABcd2cd|eafe dfed|1 cABc A2Ad:|2 cABc A2AE||

